X:1
T:[ID 1-131]
T:[ID 1-131]
T:Bezeichnung standardisiert: Daphnus; Daphnus
T:Urheber unbekannt Datum in der hier transkribierten schriftlichen Quelle: vermutlich vor 1767
C:Urheber unbekannt
C:Datum in der hier transkribierten schriftlichen Quelle: vermutlich vor 1767
L:1/8
M:3/4
K:F
V:1 treble 
V:1
 DE | F2 DEFG | A4 d2 | ^c2 d2 ec | d4 A2 | B2 A2 G2 | A4 G2 | FEFGA^C | D4 :: f2 fgaf | e2 efge | %11
 d2 dfed | ^c2 Bc A2 | f2 g2 a2 | bagfed | ^c2 f2 e2 | f6"^1)" |: x6 | c2 c2 c2 | cdcB A2 | %20
 A2 d2 e2 | ^cdec A2 | _B2 A2 G2 | A4 G2 | (3FED E4 | D6 :| %26

